!!!COM:	Josquin des Prez
!!!CDT:	~1450-1521/08/27
!!!OPR:	Missa Sine nomine
!!!OTA:	Missa Ad fugam
!!!ONM:	5
!!!OTL:	Agnus Dei
!!!AGN:	Mass; Agnus Dei
!!!SCT:	NJE 12.2
!!!SCA:	New Josquin Edition 12.2
!!!voices: 4
**kern	**kern	**kern	**kern
*staff4	*staff3	*staff2	*staff1
*Ivox	*Ivox	*Ivox	*Ivox
*I"Bassus	*I"Tenor	*I"Altus	*I"Superius
*I'B	*I'T	*I'A	*I'S
*>[A,B,C]	*>[A,B,C]	*>[A,B,C]	*>[A,B,C]
*>Agnus1[A]	*>Agnus1[A]	*>Agnus1[A]	*>Agnus1[A]
*>Agnus2[B]	*>Agnus2[B]	*>Agnus2[B]	*>Agnus2[B]
*>Agnus3[C]	*>Agnus3[C]	*>Agnus3[C]	*>Agnus3[C]
*clefF4	*clefGv2	*clefGv2	*clefG2
*k[]	*k[]	*k[]	*k[]
*>A	*>A	*>A	*>A
*M3/1	*M3/1	*M3/1	*M3/1
*met(O)	*met(O)	*met(O)	*met(O)
=1-	=1-	=1-	=1-
!!section: Agnus Dei I
!!!OMD: Agnus Dei I
!LO:TX:Z=10:t=Tenor in diapente	!	!	!
0.r	0.r	2.A/	0a
.	.	4B\	.
.	.	2c\	.
.	.	2d\	.
.	.	2c\	1a
.	.	2d\	.
=2	=2	=2	=2
0.r	0.r	2A/	1.a
.	.	2d\	.
.	.	2c\	.
.	.	2d\	2f/
.	.	1B	1g
=3	=3	=3	=3
0.r	0.r	2r	1a
.	.	2A/	.
.	.	2.c\	2e/
.	.	.	2a/
.	.	4d\	.
.	.	2e\	2g/
.	.	2A/	2a/
=4	=4	=4	=4
0.r	0.r	2.c\	2e/
.	.	.	2a/
.	.	4d\	.
.	.	2e\	2g/
.	.	2c\	2a/
.	.	2d\	1f
.	.	[2A/	.
=5	=5	=5	=5
!!linebreak:default
0A	0.r	4A/]	1e
.	.	4B\	.
.	.	4c\	.
.	.	4d\	.
.	.	2e\	1cc
.	.	2f\	.
1A	.	2e\	1cc
.	.	2A/	.
=6	=6	=6	=6
1.A	0.r	2.c\	1.cc
.	.	4d\	.
.	.	2e\	.
2F\	.	2f\	2a/
1G	.	2d\	1b
.	.	[2e\	.
=7	=7	=7	=7
1A	0e	4e\]	1cc
.	.	4d\	.
.	.	2c\	.
2E\	.	2B\	2r
2A\	.	2A/	2cc\
2G\	1e	2r	2b\
2A\	.	2c\	2cc\
=8	=8	=8	=8
2E\	1.e	4B\	2g/
.	.	4A/	.
2A\	.	2c\	2a/
2G\	.	2B\	2b\
2A\	2c\	2.A/	2cc\
1F	1d	.	1a
.	.	4G/	.
.	.	2A/	.
=9	=9	=9	=9
!!linebreak:default
0E	1e	2B\	1g
.	.	2.e\	.
.	2B\	.	2.g/
.	.	4d\	.
.	2e\	2c\	.
.	.	.	4a/
1r	2d\	2B\	2b\
.	2e\	2E/	4g/
.	.	.	4a/
=10	=10	=10	=10
0.r	2B\	2G/	2b\
.	2e\	2E/	2.cc\
.	2d\	1G	.
.	.	.	4b\
.	2e\	.	1b
.	1c	1A	.
.	.	.	2a/
=11	=11	=11	=11
1E	0B	2r	1.b
.	.	2E/	.
1E	.	2.G/	.
.	.	.	2g/
.	.	4A/	.
1E	1r	2B\	1g
.	.	[2c\	.
=12	=12	=12	=12
0F	0.r	4c\]	1a
.	.	4B\	.
.	.	2c\	.
.	.	2d\	1a
.	.	1e	.
1F	.	.	1a
.	.	2d\	.
=13	=13	=13	=13
!!pagebreak:default
2E\	1B	1e	0g
1G	.	.	.
.	1B	1E	.
2E\	.	.	.
1D	1B	1F	1r
=14	=14	=14	=14
1C	0c	2G/	2.e/
.	.	2A/	.
.	.	.	4f/
1r	.	2E/	2g/
.	.	2F/	2.a/
1C	1c	2E/	.
.	.	.	4g/
.	.	[2G/	2e/
=15	=15	=15	=15
0G	2B\	4G/]	1d
.	.	4A/	.
.	1d	4B\	.
.	.	4c\	.
.	.	2d\	2r
.	2B\	1e	2g/
1F	1A	.	2a/
.	.	2d\	2f/
=16	=16	=16	=16
2E\	1G	2c\	2.g/
2.G\	.	2.B\	.
.	.	.	4f/
.	1r	.	4e/
4F\	.	4A/	4d/
2D\	.	2A/	1d
1E	1G	2r	.
.	.	2G/	2g/
=17	=17	=17	=17
!!linebreak:default
1D	0d	2A/	2f/
.	.	1B	2.d/
2r	.	.	.
.	.	.	4e/
2D\	.	2A/	2f/
2E\	1c	2r	2g/
2F\	.	2A/	2a/
=18	=18	=18	=18
2.G\	2B\	2B\	2d/
.	2.d\	2G/	2.b\
4F\	.	.	.
2D\	.	1d	.
.	4c\	.	4a/
2F\	2A/	.	1a
1E	1B	1e	.
.	.	.	2g#i/
=19	=19	=19	=19
2r	1A	1c	2a/
2A\	.	.	2cc\
2G\	2r	1d	2b\
2F\	2A/	.	2a/
1E	2B\	2r	2g/
.	2c\	2G/	2e/
=20	=20	=20	=20
1D	2.d\	2A/	2.f/
.	.	2B\	.
.	4c\	.	4g/
2r	2A/	2c\	0e
1A	2c\	2A/	.
.	1B	1E	.
2G\	.	.	.
=21	=21	=21	=21
!!linebreak:default
2A\	2r	1c	2r
2E\	2e\	.	2g/
1F	2d\	1A	1a
.	2c\	.	.
1G	1B	2.d\	1b
.	.	4B\	.
=22	=22	=22	=22
2A\	1A	2c\	2e/
2D\	.	2d\	2.a/
2.A\	2r	2c\	.
.	.	.	4b\
.	1e	2.A/	1cc
4G\	.	.	.
1F	.	.	.
.	.	4G/	.
.	2d\	2A/	4b\
.	.	.	4a/
=23	=23	=23	=23
2E\	2e\	1B	1g
2G\	2B\	.	.
2F\	1c	2r	1r
2E\	.	2G/	.
1D	1d	2A/	1f
.	.	2F/	.
=24	=24	=24	=24
2C/	2e\	1c	2g/
2F\	2A/	.	2a/
2E\	2.e\	2.c\	2g/
1A	.	.	2a/
.	4d\	4d\	.
.	1c	2e\	2e/
2F\	.	2f\	2a/
=25	=25	=25	=25
!!pagebreak:default
2G\	2B\	1d	2g/
2D\	2d\	.	2.f/
2E\	2c\	1G	.
.	.	.	4e/
2G\	2B\	.	1e
1F	1A	2r	.
.	.	2A/	2d/
=26	=26	=26	=26
0E	2G/	2B\	1e
.	2c\	2.e\	.
.	2B\	.	2r
.	.	4d\	.
.	1e	2.c\	2e/
1r	.	.	2.g/
.	.	4B\	.
.	2c\	2A/	.
.	.	.	4a/
=27	=27	=27	=27
0.r	2d\	2G/	2b\
.	2A/	2c\	2.cc\
.	2B\	1d	.
.	.	.	4b\
.	2d\	.	2b\
.	1c	1e	2.a/
.	.	.	4g/
=28	=28	=28	=28
!	!LO:N:vis=0	!	!
0.El	0.B	0.el	0.gl
!!LO:LB:i:g=z
=29||	=29||	=29||	=29||
!!linebreak:default
*>B	*>B	*>B	*>B
!!section: Agnus Dei II
!!!OMD: Agnus Dei II
!LO:HIDE	!LO:SHOW	!LO:SHOW	!LO:HIDE
*M2/1	*M2/1	*M2/1	*M2/1
*met()	*met(C|)	*met(C|)	*met()
!!primary-mensuration: met(C|)
!	!	!LO:TX:Z=10:X=-30:t=Canon ung ton plus bas	!
*tacet	*	*	*tacet
0r	0r	1.e	0r
.	.	4d\	.
.	.	4c\	.
=30	=30	=30	=30
0r	1.d	1B	0r
.	.	1d	.
.	4c\	.	.
.	4B\	.	.
=31	=31	=31	=31
0r	1A	1c	0r
.	1c	1A	.
=32	=32	=32	=32
0r	1B	2r	0r
.	.	2d\	.
.	1G	2e\	.
.	.	2d\	.
=33	=33	=33	=33
0r	2r	2.c\	0r
.	2c\	.	.
.	.	4A/	.
.	2d\	2B\	.
.	2c\	2A/	.
=34	=34	=34	=34
0r	2.B\	2r	0r
.	.	2d\	.
.	4G/	.	.
.	2A/	2c\	.
.	2G/	2B\	.
=35	=35	=35	=35
!!linebreak:default
0r	2r	1e	0r
.	2c\	.	.
.	2B\	2d\	.
.	2A/	2c\	.
=36	=36	=36	=36
0r	1d	1B	0r
.	2c\	2A/	.
.	2B\	[2d\	.
=37	=37	=37	=37
0r	1A	2d\]	0r
.	.	2c\	.
.	2G/	1e	.
.	[2c\	.	.
=38	=38	=38	=38
0r	2c\]	1.d	0r
.	2B\	.	.
.	1d	.	.
.	.	4c\	.
.	.	4B\	.
=39	=39	=39	=39
0r	1.c	1A	0r
.	.	2r	.
.	4B\	2A/	.
.	4A/	.	.
=40	=40	=40	=40
0r	1G	2B\	0r
.	.	2.d\	.
.	2r	.	.
.	.	4c\	.
.	2G/	4d\	.
.	.	4B\	.
=41	=41	=41	=41
0r	2A/	2c\	0r
.	2.c\	2.e\	.
.	4B\	4d\	.
.	4c\	4e\	.
.	4A/	4c\	.
=42	=42	=42	=42
!!pagebreak:default
0r	2B\	2d\	0r
.	2.d\	2B\	.
.	.	2.d\	.
.	4c\	.	.
.	4d\	.	.
.	4B\	4c\	.
=43	=43	=43	=43
0r	2c\	1A	0r
.	2A/	.	.
.	2.c\	2r	.
.	.	[2c\	.
.	4B\	.	.
=44	=44	=44	=44
0r	1G	2c\]	0r
.	.	2B\	.
.	2r	1d	.
.	[2B\	.	.
=45	=45	=45	=45
0r	2B\]	1.c	0r
.	2A/	.	.
.	1c	.	.
.	.	4B\	.
.	.	4A/	.
=46	=46	=46	=46
!	!LO:N:vis=1.	!	!
0r	0B	0Gl	0r
!!LO:LB:i:g=z
=47||	=47||	=47||	=47||
*>C	*>C	*>C	*>C
!LO:SHOW	!LO:SHOW	!LO:SHOW	!LO:SHOW
!!section: Agnus Dei III
!!!OMD: Agnus Dei III
*M2/1	*M2/1	*M2/1	*M2/1
*met(C|)	*met(C|)	*met(C|)	*met(C|)
!	!	!	!LO:TX:Z=6:t=Tenor in diapason
*xtacet	*	*	*xtacet
1A	0r	0r	0r
1c	.	.	.
=48	=48	=48	=48
2B\	0r	1r	0r
1A	.	.	.
.	.	1e	.
4G\	.	.	.
4F\	.	.	.
=49	=49	=49	=49
!!linebreak:default
1E	0r	1g	0r
1r	.	2f\	.
.	.	[2e\	.
=50	=50	=50	=50
1.G	0r	2e\]	0r
.	.	4d\	.
.	.	4c\	.
.	.	1B	.
4F\	.	.	.
4G\	.	.	.
=51	=51	=51	=51
2A\	0r	1r	0r
1G	.	.	.
.	.	[1d	.
4F\	.	.	.
4E\	.	.	.
=52	=52	=52	=52
1D	0r	2d\]	0r
.	.	4c\	.
.	.	4d\	.
1r	.	2e\	.
.	.	[2d\	.
=53	=53	=53	=53
1.F	0r	2d\]	1a
.	.	4c\	.
.	.	4B\	.
.	.	1A	1cc
4E\	.	.	.
4F\	.	.	.
=54	=54	=54	=54
2G\	0r	1r	2b\
1F	.	.	1a
.	.	1A	.
4E\	.	.	4g/
4D\	.	.	4f/
=55	=55	=55	=55
0A	1A	1.c	0e
.	1c	.	.
.	.	4B\	.
.	.	4c\	.
=56	=56	=56	=56
!!linebreak:default
1r	2B\	2d\	0r
.	1A	1c	.
1AA	.	.	.
.	4G/	4B\	.
.	4F/	4A/	.
=57	=57	=57	=57
[0C	0E	0e	1.g
.	.	.	4f/
.	.	.	4g/
=58	=58	=58	=58
1C]	0r	1c	2a/
.	.	.	1g
[1GG	.	1B	.
.	.	.	4f/
.	.	.	4e/
=59	=59	=59	=59
1GG]	1.G	2r	0d
.	.	1B	.
1GG	.	.	.
.	4F/	4A/	.
.	4G/	4B\	.
=60	=60	=60	=60
1r	2A/	2c\	0r
.	1G	2B\	.
1G	.	[1d	.
.	4F/	.	.
.	4E/	.	.
=61	=61	=61	=61
1.F	0D	2d\]	1f
.	.	4c\	.
.	.	4B\	.
.	.	2.A/	1a
4E\	.	.	.
4D\	.	4B\	.
=62	=62	=62	=62
2E\	0r	2c\	2g/
2D\	.	2d\	1f
[1F	.	[1A	.
.	.	.	4e/
.	.	.	4d/
=63	=63	=63	=63
!!pagebreak:default
1F]	1F	1A]	0c
1F	1A	2r	.
.	.	[2c\	.
=64	=64	=64	=64
2C/	2G/	2c\]	0r
1D	1F	2A/	.
.	.	2B\	.
4C/	4E/	[2A/	.
4BB/	4D/	.	.
=65	=65	=65	=65
0AA	0C	2A/]	1r
.	.	4G/	.
.	.	4F/	.
.	.	1E	1c
=66	=66	=66	=66
1D	0r	2D/	1d
.	.	2F/	.
2C/	.	2E/	1e
2AA/	.	[2A/	.
=67	=67	=67	=67
1D	1r	4A/]	1f
.	.	4G/	.
.	.	4A/	.
.	.	4B\	.
1AA	1C	1c	1e
=68	=68	=68	=68
1D	1D	2F/	1f
.	.	2.A/	.
1C	1E	.	1g
.	.	4G/	.
.	.	[2c\	.
=69	=69	=69	=69
1r	1F	2c\]	0c
.	.	4B\	.
.	.	4A/	.
1C	1E	1G	.
=70	=70	=70	=70
!!linebreak:default
1D	1F	1F	0r
[1E	1G	1r	.
=71	=71	=71	=71
1E]	0C	1G	1r
1AA	.	[1A	1e
=72	=72	=72	=72
1D	0r	2A/]	1f
.	.	2B\	.
1E	.	2B\	1g
.	.	2c\	.
=73	=73	=73	=73
2.F\	1r	2A/	1a
.	.	1c	.
4E\	.	.	.
2C/	1E	.	1g
2E\	.	[2B\	.
=74	=74	=74	=74
2.D\	1F	2B\]	1a
.	.	2A/	.
4C/	.	.	.
1BB	1G	2r	1b
.	.	2d\	.
=75	=75	=75	=75
1AA	1A	2c\	0e
.	.	2A/	.
1E	1G	2B\	.
.	.	2c\	.
=76	=76	=76	=76
2C/	1A	2c\	0r
2D\	.	2A/	.
1BB	1B	1d	.
=77	=77	=77	=77
!!linebreak:default
1AA	0E	1c	1r
2r	.	2B\	1g
2E\	.	[2c\	.
=78	=78	=78	=78
1F	0r	2c\]	1a
.	.	2d\	.
1G	.	2d\	1b
.	.	2e\	.
=79	=79	=79	=79
2.A\	1r	2c\	1cc
.	.	1e	.
4G\	.	.	.
2E\	1G	.	1b
2G\	.	[2d\	.
=80	=80	=80	=80
2.F\	1A	2d\]	1cc
.	.	2c\	.
4E\	.	.	.
1D	1B	2r	1dd
.	.	2f\	.
=81	=81	=81	=81
1C	1c	2e\	0g
.	.	2c\	.
1G	1B	2d\	.
.	.	[2e\	.
=82	=82	=82	=82
2E\	1c	4e\]	0r
.	.	4d\	.
2F\	.	1c	.
1D	1d	.	.
.	.	2B\	.
=83	=83	=83	=83
1C	0G	1c	1r
1E	.	2B\	1g
.	.	[2c\	.
=84	=84	=84	=84
!!pagebreak:default
1F	0r	2c\]	1a
.	.	1d	.
1G	.	.	1b
.	.	2e\	.
=85	=85	=85	=85
2.A\	1r	2c\	1.cc
.	.	2.e\	.
4G\	.	.	.
2E\	1G	.	.
.	.	4d\	.
2G\	.	2B\	2b\
=86	=86	=86	=86
2F\	1A	1c	2a/
2E\	.	.	2g/
1D	1B	1d	1f
=87	=87	=87	=87
0C	1.c	2G/	0e
.	.	4c\	.
.	.	4d\	.
.	.	4e\	.
.	.	4f\	.
.	2B\	2g\	.
=88	=88	=88	=88
0r	2A/	2f\	0r
.	2G/	1e	.
.	1F	.	.
.	.	2d\	.
=89	=89	=89	=89
1r	0E	2e\	1r
.	.	2c\	.
1G	.	2B\	1b
.	.	[2e\	.
=90	=90	=90	=90
1A	0r	2e\]	1cc
.	.	2f\	.
1B	.	2d\	1dd
.	.	2g\	.
=91	=91	=91	=91
!!linebreak:default
1c	1r	2e\	1.ee
.	.	2.g\	.
1G	1B	.	.
.	.	4f\	.
.	.	2g\	2dd\
=92	=92	=92	=92
2A\	1c	1e	2cc\
2E\	.	.	2b\
1F	1d	2r	1a
.	.	2A/	.
=93	=93	=93	=93
0E	1.e	2B\	0g
.	.	2c\	.
.	.	4G/	.
.	.	4A/	.
.	2d\	4B\	.
.	.	4c\	.
=94	=94	=94	=94
0r	2c\	4A/	0r
.	.	4G/	.
.	2B\	1g	.
.	1A	.	.
.	.	2f#i\	.
=95	=95	=95	=95
1r	0G	2g\	1r
.	.	2.G/	.
1E	.	.	1g
.	.	4A/	.
.	.	4B\	.
.	.	4c\	.
=96	=96	=96	=96
1F	0r	2A/	1a
.	.	1d	.
1G	.	.	1b
.	.	2e\	.
=97	=97	=97	=97
2.A\	1r	2c\	2.cc\
.	.	2.e\	.
4G\	.	.	4b\
2E\	1G	.	2cc\
.	.	4d\	.
2G\	.	2B\	[2b\
=98	=98	=98	=98
!!linebreak:default
1F	1A	2c\	4b\]
.	.	.	4a/
.	.	2d\	1a
1E	1B	2e\	.
.	.	[2E/	2g#i/
=99	=99	=99	=99
1AA	2.c\	2E/]	1a
.	.	2A/	.
.	4B\	.	.
1E	2c\	2.G/	2r
.	[2B\	.	2g/
.	.	4E/	.
=100	=100	=100	=100
2D\	4B\]	2F/	1a
.	4A/	.	.
2C/	1A	1E	.
1BB	.	.	1b
.	2G#i/	2D/	.
=101	=101	=101	=101
1AA	1A	2E/	2.cc\
.	.	2.e\	.
.	.	.	4b\
1E	2r	.	2cc\
.	.	4d\	.
.	2G/	2e\	[2b\
=102	=102	=102	=102
1F	1A	2c\	4b\]
.	.	.	4a/
.	.	2d\	1a
1E	1B	2e\	.
.	.	[2E/	2g#i/
=103	=103	=103	=103
1AA	2.c\	2E/]	1a
.	.	2A/	.
.	4B\	.	.
1E	2c\	2.G/	1r
.	[2B\	.	.
.	.	4E/	.
=104	=104	=104	=104
2D\	4B\]	2F/	0r
.	4A/	.	.
2C/	1A	1E	.
1BB	.	.	.
.	2G#i/	2D/	.
=105	=105	=105	=105
!!pagebreak:default
!	!LO:N:vis=1	!	!
2.AA/	[y0A	2E/	0a
.	.	2F/	.
4BB/	.	.	.
2C/	.	2E/	.
[2D\	.	[2F/	.
=106	=106-	=106	=106
2D\]	0A_yy	4F/]	[0al
.	.	4D/	.
2C/	.	2E/	.
1D	.	1F	.
=107	=107-	=107	=107
0AAl	0A]yy	0El	0a]
==	==	==	==
*-	*-	*-	*-
!!!RDF**kern: l=long note in original notation
!!!RDF**kern: i=musica ficta
!!!ENC: Jesse Rodin; Victoria Chang 2011/04/06
!!!END: 2011/04/06/
!!!SMS: Davison, Missa sine nomine
!!!EED:	Jesse Rodin
!!!EEV: 2012/04/24/
!!attribution-level: 1 (secure)
!!!ONB:	Translated from MusicXML and edited on 2011/04/14/ by Craig Sapp
!!muse2ps: T^@{OPR}^u^@{ONM}{. }@{OTL}^C^@{COM}\n@{SCT}^i2I100v85,90,85,100c95Q16
